icons/_assets/wttj.svg

<svg width="599" height="500" viewBox="0 0 599 500" xmlns="http://www.w3.org/2000/svg"><path d="M142.672326,484.011129 C140.714747,491.909083 140.158005,497.55612 143.171599,499.24341 C146.393523,501.04917 152.043563,500.029616 157.786992,491.682914 C208.551149,417.890895 262.095427,310.852079 311.020537,220.743605 C300.226912,251.990782 292.759377,275.077938 287.673263,311.516225 C276.944293,388.460246 301.642116,448.585216 321.96502,476.709112 C332.359945,491.090568 341.788651,501.767166 371.040989,497.408931 C520.237251,475.20132 564.38515,343.843987 582.754066,277.221155 C616.2592,155.768574 591.730195,87.2502334 564.945484,43.0145114 C537.420845,-2.45257337 457.447453,-22.3482373 399.240904,36.3586902 C395.993837,39.7584004 391.708714,50.11549 404.643104,64.0840985 C431.718757,92.9224003 571.38574,247.578698 515.722248,375.446572 C493.114903,427.386389 430.863888,413.008523 400.325654,361.617973 C367.678982,306.676933 352.959424,200.155075 373.505025,99.5207818 C374.000705,97.093956 374.988474,92.0320855 369.417456,89.9391277 C365.893813,88.6144254 362.054085,88.8908538 358.41191,94.7461097 C356.917685,97.1513956 305.661439,170.06746 246.140259,278.904855 C272.813621,151.424699 209.858596,16.689195 199.197872,10.8195792 C196.155542,9.14664897 195.652678,7.32652959 189.528509,7.32652959 L9.81915583,7.32652959 C-2.28909944,7.32652959 -1.22590052,17.6872092 2.59586857,21.4459172 C48.5720381,76.1177083 198.486678,258.998422 142.672326,484.011129" fill="#134B45" fill-rule="evenodd"/></svg>

<svg width="599" height="500" xmlns="http://www.w3.org/2000/svg"><path d="M142.672 484.011c-1.957 7.898-2.514 13.545.5 15.232 3.222 1.806 8.872.787 14.615-7.56 50.764-73.792 104.308-180.83 153.234-270.94-10.794 31.248-18.262 54.335-23.348 90.773-10.729 76.944 13.97 137.07 34.292 165.193 10.395 14.382 19.824 25.058 49.076 20.7C520.237 475.2 564.385 343.844 582.754 277.22c33.505-121.452 8.976-189.97-17.809-234.206-27.524-45.468-107.498-65.363-165.704-6.656-3.247 3.4-7.532 13.756 5.402 27.725 27.076 28.838 166.743 183.495 111.08 311.363-22.608 51.94-84.86 37.562-115.397-13.829-32.647-54.941-47.367-161.463-26.821-262.097.496-2.427 1.483-7.489-4.088-9.582-3.523-1.325-7.363-1.048-11.005 4.807-1.494 2.405-52.75 75.321-112.272 184.159 26.674-127.48-36.281-262.216-46.942-268.085-3.042-1.673-3.545-3.493-9.67-3.493H9.82c-12.108 0-11.045 10.36-7.223 14.119 45.976 54.672 195.89 237.552 140.076 462.565" fill="#134B45" fill-rule="evenodd"/></svg>
